svgs/duotone/traffic-light.svg

<svg xmlns="http://www.w3.org/2000/svg" viewBox="0 0 384 512"><!-- Font Awesome Pro 6.0.0-alpha2 by @fontawesome - https://fontawesome.com License - https://fontawesome.com/license (Commercial License) --><defs><style>.fa-secondary{opacity:.4}</style></defs><path d="M192 160C218.5 160 240 138.5 240 112S218.5 64 192 64S144 85.5 144 112S165.5 160 192 160ZM192 192C165.5 192 144 213.5 144 240S165.5 288 192 288S240 266.5 240 240S218.5 192 192 192ZM192 320C165.5 320 144 341.5 144 368S165.5 416 192 416S240 394.5 240 368S218.5 320 192 320Z" class="fa-secondary"/><path d="M384 192.001H320V154.126C357.25 140.876 384 105.751 384 64.001H320V32.001C320 14.376 305.625 0.001 288 0.001H96C78.375 0.001 64 14.376 64 32.001V64.001H0C0 105.751 26.75 140.876 64 154.126V192.001H0C0 233.751 26.75 268.876 64 282.126V320.001H0C0 362.876 28.25 398.751 67 411.001C79.375 468.751 130.625 512.001 192 512.001S304.625 468.751 317 411.001C355.75 398.751 384 362.876 384 320.001H320V282.126C357.25 268.876 384 233.751 384 192.001ZM192 416.001C165.5 416.001 144 394.501 144 368.001S165.5 320.001 192 320.001S240 341.501 240 368.001S218.5 416.001 192 416.001ZM192 288.001C165.5 288.001 144 266.501 144 240.001S165.5 192.001 192 192.001S240 213.501 240 240.001S218.5 288.001 192 288.001ZM192 160.001C165.5 160.001 144 138.501 144 112.001S165.5 64.001 192 64.001S240 85.501 240 112.001S218.5 160.001 192 160.001Z" class="fa-primary"/></svg>

<svg xmlns="http://www.w3.org/2000/svg" viewBox="0 0 384 512"><!-- Font Awesome Pro 5.15.1 by @fontawesome - https://fontawesome.com License - https://fontawesome.com/license (Commercial License) --><defs><style>.fa-secondary{opacity:.4}</style></defs><path d="M192 320a48 48 0 1 0 48 48 48 48 0 0 0-48-48zm0-160a48 48 0 1 0-48-48 48 48 0 0 0 48 48zm0 32a48 48 0 1 0 48 48 48 48 0 0 0-48-48z" class="fa-secondary"/><path d="M384 192h-64v-37.88c37.2-13.22 64-48.38 64-90.12h-64V32a32 32 0 0 0-32-32H96a32 32 0 0 0-32 32v32H0c0 41.74 26.8 76.9 64 90.12V192H0c0 41.74 26.8 76.9 64 90.12V320H0c0 42.79 28.19 78.61 66.86 91v-.15a128 128 0 0 0 250.34 0v.15c38.61-12.4 66.8-48.22 66.8-91h-64v-37.88c37.2-13.22 64-48.38 64-90.12zM192 416a48 48 0 1 1 48-48 48 48 0 0 1-48 48zm0-128a48 48 0 1 1 48-48 48 48 0 0 1-48 48zm0-128a48 48 0 1 1 48-48 48 48 0 0 1-48 48z" class="fa-primary"/></svg>
